SF_Symbols/shower.handheld.svg

<?xml version="1.0" encoding="UTF-8"?>
<svg xmlns="http://www.w3.org/2000/svg" xmlns:xlink="http://www.w3.org/1999/xlink" width="24" height="24" viewBox="0 0 24 24" version="1.1">
<g id="surface1">
<path style=" stroke:none;fill-rule:nonzero;fill:rgb(100%,100%,100%);fill-opacity:1;" d="M 14.824219 1.75 L 10.832031 12.738281 C 10.765625 12.933594 10.769531 13.125 10.855469 13.3125 C 10.945312 13.5 11.085938 13.628906 11.28125 13.699219 C 11.476562 13.773438 11.667969 13.765625 11.855469 13.675781 C 12.042969 13.585938 12.171875 13.449219 12.238281 13.261719 L 16.238281 2.269531 C 16.308594 2.070312 16.296875 1.875 16.207031 1.6875 C 16.125 1.5 15.984375 1.371094 15.792969 1.300781 C 15.597656 1.226562 15.402344 1.234375 15.207031 1.324219 C 15.019531 1.414062 14.890625 1.554688 14.824219 1.75 Z M 2.15625 19.425781 C 2.683594 19.613281 3.179688 19.601562 3.644531 19.386719 C 4.117188 19.164062 4.449219 18.796875 4.636719 18.28125 L 7.980469 9.15625 L 7.425781 9.5 C 7.734375 10.214844 8.191406 10.859375 8.800781 11.425781 C 9.421875 11.988281 10.160156 12.402344 11.019531 12.667969 L 11.46875 11.40625 C 10.425781 11.03125 9.613281 10.484375 9.03125 9.761719 C 8.449219 9.039062 8.140625 8.195312 8.113281 7.230469 L 7.707031 7.082031 C 7.617188 7.046875 7.527344 7.050781 7.4375 7.09375 C 7.355469 7.136719 7.296875 7.203125 7.261719 7.292969 L 3.457031 17.71875 C 3.375 17.925781 3.246094 18.066406 3.074219 18.136719 C 2.90625 18.199219 2.738281 18.199219 2.574219 18.136719 C 2.421875 18.074219 2.304688 17.972656 2.230469 17.832031 C 2.152344 17.6875 2.148438 17.515625 2.21875 17.324219 L 6.730469 4.949219 C 6.855469 4.578125 7.089844 4.316406 7.4375 4.15625 C 7.785156 3.988281 8.140625 3.972656 8.511719 4.105469 L 9.113281 4.324219 C 9.753906 3.574219 10.539062 3.101562 11.46875 2.90625 C 12.40625 2.710938 13.40625 2.804688 14.46875 3.1875 L 14.917969 1.9375 C 13.757812 1.515625 12.640625 1.386719 11.574219 1.550781 C 10.503906 1.710938 9.570312 2.140625 8.769531 2.84375 L 8.582031 2.769531 C 7.945312 2.542969 7.339844 2.585938 6.769531 2.90625 C 6.207031 3.226562 5.789062 3.761719 5.511719 4.511719 L 0.988281 16.9375 C 0.800781 17.457031 0.820312 17.953125 1.042969 18.425781 C 1.265625 18.898438 1.636719 19.234375 2.15625 19.425781 Z M 2.949219 18.949219 L 1.863281 18.550781 L 0.0742188 23.480469 L 1.15625 23.863281 Z M 15.480469 12.449219 C 15.644531 12.300781 15.734375 12.125 15.738281 11.917969 C 15.753906 11.707031 15.691406 11.519531 15.550781 11.355469 C 15.398438 11.1875 15.21875 11.101562 15.011719 11.09375 C 14.800781 11.085938 14.613281 11.15625 14.449219 11.300781 C 14.289062 11.460938 14.203125 11.644531 14.199219 11.855469 C 14.191406 12.0625 14.265625 12.242188 14.417969 12.394531 C 14.5625 12.546875 14.734375 12.632812 14.9375 12.644531 C 15.144531 12.660156 15.328125 12.59375 15.480469 12.449219 Z M 17.417969 14.550781 C 17.578125 14.40625 17.660156 14.226562 17.667969 14.011719 C 17.671875 13.796875 17.601562 13.605469 17.449219 13.4375 C 17.316406 13.292969 17.140625 13.214844 16.925781 13.207031 C 16.71875 13.203125 16.535156 13.269531 16.375 13.417969 C 16.230469 13.5625 16.148438 13.738281 16.136719 13.949219 C 16.121094 14.15625 16.183594 14.332031 16.324219 14.480469 C 16.484375 14.640625 16.667969 14.730469 16.875 14.75 C 17.082031 14.765625 17.265625 14.699219 17.417969 14.550781 Z M 19.332031 16.636719 C 19.480469 16.488281 19.558594 16.316406 19.574219 16.113281 C 19.585938 15.914062 19.523438 15.730469 19.386719 15.5625 C 19.238281 15.402344 19.058594 15.324219 18.84375 15.324219 C 18.636719 15.316406 18.453125 15.390625 18.300781 15.542969 C 18.15625 15.6875 18.074219 15.863281 18.050781 16.074219 C 18.039062 16.273438 18.101562 16.453125 18.238281 16.613281 C 18.386719 16.773438 18.566406 16.855469 18.78125 16.855469 C 18.996094 16.855469 19.179688 16.78125 19.332031 16.636719 Z M 16.96875 8.625 C 17.046875 8.429688 17.035156 8.238281 16.9375 8.050781 C 16.847656 7.859375 16.703125 7.726562 16.5 7.65625 C 16.296875 7.585938 16.101562 7.59375 15.90625 7.675781 C 15.71875 7.761719 15.585938 7.902344 15.511719 8.105469 C 15.441406 8.3125 15.449219 8.515625 15.53125 8.71875 C 15.621094 8.921875 15.765625 9.054688 15.96875 9.125 C 16.171875 9.203125 16.367188 9.191406 16.5625 9.09375 C 16.757812 8.996094 16.890625 8.839844 16.96875 8.625 Z M 19.636719 9.636719 C 19.710938 9.433594 19.703125 9.238281 19.605469 9.050781 C 19.515625 8.859375 19.367188 8.726562 19.167969 8.65625 C 18.964844 8.578125 18.773438 8.582031 18.59375 8.667969 C 18.414062 8.75 18.285156 8.894531 18.207031 9.105469 C 18.140625 9.296875 18.144531 9.492188 18.230469 9.6875 C 18.3125 9.875 18.453125 10.003906 18.65625 10.074219 C 18.859375 10.148438 19.050781 10.144531 19.238281 10.0625 C 19.425781 9.972656 19.558594 9.828125 19.636719 9.636719 Z M 22.324219 10.582031 C 22.398438 10.390625 22.390625 10.199219 22.292969 10.011719 C 22.203125 9.816406 22.058594 9.679688 21.863281 9.605469 C 21.65625 9.535156 21.453125 9.546875 21.261719 9.636719 C 21.074219 9.71875 20.941406 9.859375 20.863281 10.050781 C 20.796875 10.253906 20.800781 10.457031 20.886719 10.667969 C 20.976562 10.867188 21.121094 11.003906 21.324219 11.074219 C 21.523438 11.148438 21.722656 11.140625 21.917969 11.042969 C 22.117188 10.945312 22.253906 10.792969 22.324219 10.582031 Z M 18.28125 4.8125 C 18.238281 4.605469 18.136719 4.441406 17.96875 4.324219 C 17.808594 4.199219 17.621094 4.148438 17.40625 4.175781 C 17.191406 4.210938 17.015625 4.304688 16.886719 4.457031 C 16.753906 4.609375 16.703125 4.796875 16.738281 5.011719 C 16.765625 5.21875 16.863281 5.390625 17.03125 5.519531 C 17.199219 5.644531 17.390625 5.699219 17.605469 5.675781 C 17.820312 5.648438 17.988281 5.550781 18.113281 5.386719 C 18.246094 5.210938 18.300781 5.019531 18.28125 4.8125 Z M 21.09375 4.4375 C 21.074219 4.222656 20.976562 4.050781 20.800781 3.925781 C 20.628906 3.800781 20.4375 3.75 20.230469 3.769531 C 20.019531 3.8125 19.851562 3.917969 19.71875 4.082031 C 19.585938 4.25 19.535156 4.441406 19.5625 4.65625 C 19.589844 4.851562 19.691406 5.015625 19.863281 5.144531 C 20.039062 5.269531 20.230469 5.324219 20.4375 5.300781 C 20.644531 5.265625 20.816406 5.167969 20.949219 5 C 21.078125 4.832031 21.128906 4.644531 21.09375 4.4375 Z M 23.917969 4.074219 C 23.875 3.859375 23.773438 3.683594 23.613281 3.550781 C 23.453125 3.421875 23.269531 3.367188 23.0625 3.394531 C 22.847656 3.417969 22.675781 3.515625 22.550781 3.6875 C 22.425781 3.859375 22.378906 4.046875 22.40625 4.25 C 22.433594 4.464844 22.527344 4.640625 22.6875 4.769531 C 22.855469 4.894531 23.042969 4.945312 23.25 4.917969 C 23.464844 4.894531 23.636719 4.800781 23.761719 4.636719 C 23.890625 4.460938 23.945312 4.273438 23.917969 4.074219 Z M 23.917969 4.074219 "/>
</g>
</svg>

<svg xmlns="http://www.w3.org/2000/svg" width="24" height="24"><path style="stroke:none;fill-rule:nonzero;fill:#fff;fill-opacity:1" d="m14.824 1.75-3.992 10.988a.733.733 0 0 0 .023.575.73.73 0 0 0 .426.386.701.701 0 0 0 .574-.023.714.714 0 0 0 .383-.414l4-10.992a.735.735 0 0 0-.031-.583.698.698 0 0 0-.414-.386.729.729 0 0 0-.586.023.7.7 0 0 0-.383.426ZM2.156 19.426c.528.187 1.024.176 1.489-.04.468-.218.828-.616.992-1.105L7.98 9.156l-.554.344c.308.715.765 1.36 1.375 1.926.64.574 1.398.996 2.219 1.242l.449-1.262c-1.043-.375-1.856-.922-2.438-1.644-.582-.723-.89-1.567-.918-2.532l-.406-.148a.325.325 0 0 0-.27.012.366.366 0 0 0-.175.199L3.457 17.719c-.082.207-.21.347-.383.418a.69.69 0 0 1-.5 0 .657.657 0 0 1-.344-.305c-.078-.145-.082-.316-.011-.508L6.73 4.95c.125-.37.36-.633.707-.793a1.353 1.353 0 0 1 1.075-.05l.601.218c.64-.75 1.426-1.222 2.356-1.418.937-.195 1.937-.101 3 .281l.449-1.25c-1.16-.421-2.277-.55-3.344-.386A5.386 5.386 0 0 0 8.77 2.844l-.188-.074c-.637-.227-1.242-.184-1.812.136-.563.32-.98.856-1.258 1.606L.988 16.938c-.187.519-.168 1.015.055 1.488.223.472.594.808 1.113 1Zm.793-.477-1.086-.398-1.789 4.93 1.082.382Zm12.531-6.5a.732.732 0 0 0 .258-.531.755.755 0 0 0-.187-.563.745.745 0 0 0-.54-.261.777.777 0 0 0-.812.761.702.702 0 0 0 .219.54c.133.148.32.238.52.25.207.015.39-.051.542-.196Zm1.938 2.102a.733.733 0 0 0 .25-.54.819.819 0 0 0-.219-.573.722.722 0 0 0-.523-.231.763.763 0 0 0-.551.211.788.788 0 0 0-.238.531.67.67 0 0 0 .187.531c.16.16.344.25.551.27.207.016.39-.05.543-.2Zm1.914 2.086a.775.775 0 0 0 .055-1.075.703.703 0 0 0-.543-.238.71.71 0 0 0-.543.219.858.858 0 0 0-.25.531c-.012.2.05.38.187.54.149.16.328.241.543.241a.764.764 0 0 0 .551-.218Zm-2.363-8.012a.659.659 0 0 0-.032-.574.728.728 0 0 0-.437-.395.8.8 0 0 0-.594.02.726.726 0 0 0-.394.43c-.07.199-.063.417.02.613.09.203.234.336.437.406.191.078.41.066.594-.031a.815.815 0 0 0 .406-.469Zm2.668 1.012a.685.685 0 0 0-.032-.586.74.74 0 0 0-.437-.395.7.7 0 0 0-.574.012.727.727 0 0 0-.387.437.77.77 0 0 0 .023.582.696.696 0 0 0 .426.387c.188.074.399.07.582-.011a.787.787 0 0 0 .399-.426Zm2.687.945a.678.678 0 0 0-.031-.57.76.76 0 0 0-.434-.41.758.758 0 0 0-.597.035.729.729 0 0 0-.399.414.862.862 0 0 0 .024.617c.09.2.234.336.437.406.2.074.399.067.594-.031.2-.098.336-.25.406-.461Zm-4.043-5.77a.752.752 0 0 0-.312-.488.73.73 0 0 0-.563-.148.838.838 0 0 0-.52.281.65.65 0 0 0-.148.555.734.734 0 0 0 .293.508c.168.125.36.18.574.156a.716.716 0 0 0 .508-.29.801.801 0 0 0 .168-.574Zm2.813-.375a.677.677 0 0 0-.293-.511.826.826 0 0 0-.57-.156.852.852 0 0 0-.512.312.742.742 0 0 0 .145 1.063c.175.125.366.18.573.156A.807.807 0 0 0 20.95 5a.71.71 0 0 0 .145-.563Zm2.824-.363a.88.88 0 0 0-.305-.523.7.7 0 0 0-.55-.156.715.715 0 0 0-.512.292.761.761 0 0 0-.145.563c.028.215.121.39.282.52.16.125.363.175.562.148a.702.702 0 0 0 .512-.281.752.752 0 0 0 .156-.563Zm0 0"/></svg>
